X:1
T:Blessèd Sunlight
T:LeRoy Moore, 1897
T:Blessèd Sunlight
T:Public Domain
T:Public Domain
C:LeRoy Moore, 1897
Z:Public Domain
%%score 1 ( 2 3 )
L:1/8
M:6/8
K:Bb
V:1 treble 
V:2 bass 
V:3 bass 
V:1
 [Fd]2 [Ec] [DB]2 [FA] | [EG]2 [EB] [EG] [DF]2 | [DB]2 [EA] [FB]2 [Fd] | [Fc]3- [Fc]2 z | %4
w: 1.~See the morn- ing|sun- light bright- en,|Mak- ing glad the|day; *|
w: 2.~At the noon- tide,|while we la- bor|In this world of|care, *|
w: 3.~As the twi- light|sha- dows ga- ther,|And we seek our|rest, *|
 [Fd]2 [Ec] [DB]2 [FA] | [EG]2 [EB] [EG] [DF]2 | [DB]2 [DB] [Ec]2 [EA] | [DB]3- [DB]2 z | %8
w: Je- sus shines from|out the dark- ness,|Light- ing up the|way. *|
w: Let us feel Thy|ho- ly pre- sence,|With us ev- ery-|where; *|
w: May we find sweet|peace and com- fort|Pil- lowed on Thy|breast. *|
 [Ec]2 [EA] [EG]2 [EF] | [DB]2 [EG] [DF] [Fd]2 | [Fc]2 [Fc] [=Ec]2 [Ec] | ([E-c]3 [EF]2) z | %12
w: Let us ga- ther|in the sun- beams—|Life and beau- ty|fair; *|
w: Teach- ing us the|pre- cious les- sons,|As we jour- ney|on; *|
w: Oh, that all the|world might know Thee,|Lov- ing Sav- ior|mine! *|
 [Fd]2 [Ec] [DB]2 [FA] | [EG]2 [EB] [EG] [DF]2 | [DB]2 [DB] [Ec]2 [EA] | [DB]3- [DB]2 z || %16
w: Let us stand be-|fore His pre- sence,|Filled with glo- ry|there. *|
w: Fill- ing us with|peace and glad- ness,|Till the day is|done. *|
w: May we feel the|sweet as- sur- ance,|All in all is|Thine. *|
"^Refrain" [Ge]2 [EG] [EG] [GB]2 | [Fd]2 [DF] [DF] [FB]2 | [Fc]2 [Fc] [=Ec]2 [Ec] | %19
w: |||
w: Bless- èd sun- light,|bless- èd sun- light!|In a world so|
w: |||
 ([E-c]3 [EF]2) z | [DF]2 [EG] [DF] [DB]2 | [Fd]2 [FB] [EG] [Ge]2 | [Fd]2 [Fd] [Fd]2 [Ec] | %23
w: ||||
w: fair! *|Bless- èd Je- sus,|bless- èd Je- sus,|We will meet Thee|
w: ||||
 [DB]3- [DB]2 z |] %24
w: |
w: there. *|
w: |
V:2
 [B,,B,]2 [B,,F,] [B,,F,]2 [D,B,] | [E,B,]2 [E,G,] [G,B,] B,2 | [B,,F,]2 [C,F,] [D,B,]2 [B,,B,] | %3
 [F,A,]3- [F,A,]2 z | [B,,B,]2 [B,,F,] [B,,F,]2 [D,B,] | [E,B,]2 [E,G,] [G,B,] B,2 | %6
 [F,B,]2 [F,B,] [F,A,]2 F, | [B,,F,]3- [B,,F,]2 z | [F,A,]2 [F,C] [F,B,]2 [F,A,] | %9
 [B,,B,]2 [B,,B,] [B,,B,]2 [B,,B,] | [A,C]2 [A,C] [G,B,]2 [C,B,] | [F,A,]3- [F,A,]2 z | %12
 [B,,B,]2 [B,,F,] [B,,F,]2 [D,B,] | [E,B,]2 [E,G,] [G,B,] B,2 | [F,B,]2 [F,B,] [F,A,]2 F, | %15
 [B,,F,]3- [B,,F,]2 z || [E,B,]2 [E,B,] [E,B,] [E,B,]2 | [B,,B,]2 [B,,B,] [B,,B,] [B,D]2 | %18
 [A,C]2 [A,C] [G,B,]2 [C,B,] | [F,A,]3- [F,A,]2 z | [B,,B,]2 [B,,B,] [B,,B,] [B,,F,]2 | %21
 [B,,B,]2 [D,B,] [E,B,] [E,B,]2 | [F,B,]2 F, [F,G,]2 [F,A,] | [B,,F,]3- [B,,F,]2 z |] %24
V:3
 x6 | x4 B,2 | x6 | x6 | x6 | x4 B,2 | x5 F, | x6 | x6 | x6 | x6 | x6 | x6 | x4 B,2 | x5 F, | x6 || %16
 x6 | x6 | x6 | x6 | x6 | x6 | x2 F, x3 | x6 |] %24

